public/svgs/filter.svg

<svg height="9" viewBox="0 0 8 9" width="8" xmlns="http://www.w3.org/2000/svg"><g fill="#0e1c2a"><path d="m1.73-.00006213c-.85791527-.00717687-1.58997503.61891537-1.71588837 1.46757127-.12591334.84865591.39282842 1.66032701 1.21588837 1.90249086v4.51c0 .27614237.22385763.5.5.5s.5-.22385763.5-.5v-4.51c.82305995-.24216385 1.34180171-1.05383495 1.21588837-1.90249086-.12591334-.8486559-.8579731-1.47474814-1.71588837-1.46757127zm0 2.45006213c-.39929469.00003747-.72453021-.32074277-.73-.72 0-.40316787.32683213-.73.73-.73.39925723.00546979.72003747.33070531.72.73 0 .19095587-.07585693.37409069-.21088312.50911688s-.31816101.21088312-.50911688.21088312z"/><path d="m6.74 5v-4.5c0-.27614237-.22385763-.5-.5-.5s-.5.22385763-.5.5v4.5c-.82696387.2480971-1.34693316 1.06506589-1.22155558 1.91929179.12537759.85422589.85817767 1.48732154 1.72155558 1.48732154s1.59617799-.63309565 1.72155558-1.48732154c.12537758-.8542259-.39459171-1.67119469-1.22155558-1.91929179zm-.49 2.38c-.39925723-.00546979-.72003747-.33070531-.72-.73 0-.39764502.32235498-.72.72-.72.19532685-.00537078.38465343.06779027.525613.20311145.14095958.13532119.2217841.32150521.22438705.51688855.00007395.19712361-.07957588.38589845-.22083405.52338973s-.33211638.21201093-.529166.20661027z"/></g></svg>

<?xml version="1.0" encoding="UTF-8"?>
<svg width="8px" height="9px" viewBox="0 0 8 9" version="1.1" xmlns="http://www.w3.org/2000/svg" xmlns:xlink="http://www.w3.org/1999/xlink">
    <!-- Generator: Sketch 63.1 (92452) - https://sketch.com -->
    <title>filter</title>
    <desc>Created with Sketch.</desc>
    <g id="App" stroke="none" stroke-width="1" fill="none" fill-rule="evenodd">
        <g id="Icons" transform="translate(-82.000000, -44.000000)" fill="#0E1C2A" fill-rule="nonzero">
            <g id="filter" transform="translate(82.000000, 44.000000)">
                <path d="M1.73,-6.21334725e-05 C0.87208473,-0.00723900304 0.140024965,0.618853238 0.0141116262,1.46750914 C-0.111801713,2.31616505 0.406940048,3.12783615 1.23,3.37 L1.23,7.88 C1.23,8.15614237 1.45385763,8.38 1.73,8.38 C2.00614237,8.38 2.23,8.15614237 2.23,7.88 L2.23,3.37 C3.05305995,3.12783615 3.57180171,2.31616505 3.44588837,1.46750914 C3.31997503,0.618853238 2.58791527,-0.00723900304 1.73,-6.21334725e-05 Z M1.73,2.45 C1.33070531,2.45003747 1.00546979,2.12925723 1,1.73 C1,1.32683213 1.32683213,1 1.73,1 C2.12925723,1.00546979 2.45003747,1.33070531 2.45,1.73 C2.45,1.92095587 2.37414307,2.10409069 2.23911688,2.23911688 C2.10409069,2.37414307 1.92095587,2.45 1.73,2.45 Z" id="Shape"></path>
                <path d="M6.74,5 L6.74,0.5 C6.74,0.223857625 6.51614237,0 6.24,0 C5.96385763,0 5.74,0.223857625 5.74,0.5 L5.74,5 C4.91303613,5.2480971 4.39306684,6.06506589 4.51844442,6.91929179 C4.64382201,7.77351768 5.37662209,8.40661333 6.24,8.40661333 C7.10337791,8.40661333 7.83617799,7.77351768 7.96155558,6.91929179 C8.08693316,6.06506589 7.56696387,5.2480971 6.74,5 Z M6.25,7.38 C5.85074277,7.37453021 5.52996253,7.04929469 5.53,6.65 C5.53,6.25235498 5.85235498,5.93 6.25,5.93 C6.44532685,5.92462922 6.63465343,5.99779027 6.775613,6.13311145 C6.91657258,6.26843264 6.9973971,6.45461666 7.00000005,6.65 C7.000074,6.84712361 6.92042417,7.03589845 6.779166,7.17338973 C6.63790783,7.31088101 6.44704962,7.38540066 6.25,7.38 Z" id="Shape"></path>
            </g>
        </g>
    </g>
</svg>
